icons/svg/barcode.svg

<svg xmlns="http://www.w3.org/2000/svg" version="1.1" baseProfile="full" width="24" height="24" viewBox="0 0 24.00 24.00" xml:space="preserve"><path fill="#000" fill-opacity="1" stroke-width=".2" stroke-linejoin="round" d="M2 6h2v12H2V6zm3 0h1v12H5V6zm2 0h3v12H7V6zm4 0h1v12h-1V6zm3 0h2v12h-2V6zm3 0h3v12h-3V6zm4 0h1v12h-1V6z"/></svg>

﻿<?xml version="1.0" encoding="utf-8"?>
<!DOCTYPE svg PUBLIC "-//W3C//DTD SVG 1.1//EN" "http://www.w3.org/Graphics/SVG/1.1/DTD/svg11.dtd">
<svg xmlns="http://www.w3.org/2000/svg" xmlns:xlink="http://www.w3.org/1999/xlink" version="1.1" baseProfile="full" width="24" height="24" viewBox="0 0 24.00 24.00" enable-background="new 0 0 24.00 24.00" xml:space="preserve">
	<path fill="#000000" fill-opacity="1" stroke-width="0.2" stroke-linejoin="round" d="M 2,6L 4,6L 4,18L 2,18L 2,6 Z M 5,6.00001L 6,6.00001L 6,18L 5,18L 5,6.00001 Z M 7,6.00001L 10,6.00001L 10,18L 7,18L 7,6.00001 Z M 11,6L 12,6L 12,18L 11,18L 11,6 Z M 14,6L 16,6L 16,18L 14,18L 14,6 Z M 17,6L 20,6L 20,18L 17,18L 17,6 Z M 21,6L 22,6L 22,18L 21,18L 21,6 Z "/>
</svg>
